build/assets/img/svg/icon-crm.svg

<svg width="48" height="48" viewBox="0 0 48 48" fill="none" xmlns="http://www.w3.org/2000/svg">
<path d="M16.9955 25.9629L16.6003 26.358V35.051L17.3906 35.6437H19.3663L20.1566 34.8534V26.7532L19.7614 25.9629H16.9955Z" fill="#C43B55"/>
<path d="M23.2744 23.5923L22.8101 24.1668V35.1661L23.6256 35.8415H25.3818L26.0843 34.8415V24.5922C26.2259 24.105 26.2173 23.8626 25.733 23.5923H23.2744Z" fill="#C43B55"/>
<path d="M28.7906 18.5789L28.3984 19.462V34.8055L29.1828 35.8517H31.1436L32.1239 34.5516V20.1595L31.7318 18.5789H28.7906Z" fill="#C43B55"/>
<path fill-rule="evenodd" clip-rule="evenodd" d="M30.6712 12.013C30.8117 12.0462 30.9302 12.14 30.9947 12.2691L31.5576 13.3949C31.6778 13.6353 31.5804 13.9277 31.3399 14.0479C31.0998 14.168 30.8079 14.071 30.6874 13.8313C29.5437 17.2504 27.1556 19.5781 24.5727 21.1032C21.6981 22.8005 18.5552 23.5222 16.5215 23.6674C16.2533 23.6866 16.0204 23.4847 16.0013 23.2166C15.9821 22.9484 16.184 22.7155 16.4521 22.6964C18.3587 22.5602 21.3514 21.8746 24.0777 20.2649C26.453 18.8624 28.6051 16.7727 29.6862 13.7472C29.4747 13.876 29.1958 13.8254 29.0441 13.6232C28.8828 13.4081 28.9264 13.103 29.1415 12.9417L30.2673 12.0974C30.3828 12.0108 30.5307 11.9799 30.6712 12.013Z" fill="black"/>
<path fill-rule="evenodd" clip-rule="evenodd" d="M27.9117 19.8768C27.9117 18.8911 28.7108 18.092 29.6965 18.092H30.826C31.8117 18.092 32.6108 18.8911 32.6108 19.8768V26.738C32.6108 27.0068 32.3929 27.2247 32.124 27.2247C31.8552 27.2247 31.6373 27.0068 31.6373 26.738V19.8768C31.6373 19.4288 31.274 19.0656 30.826 19.0656H29.6965C29.2485 19.0656 28.8853 19.4288 28.8853 19.8768V34.2149C28.8853 34.663 29.2485 35.0262 29.6965 35.0262H30.826C31.274 35.0262 31.6373 34.663 31.6373 34.2149V28.4314C31.6373 28.1626 31.8552 27.9446 32.124 27.9446C32.3929 27.9446 32.6108 28.1626 32.6108 28.4314V34.2149C32.6108 35.2006 31.8117 35.9997 30.826 35.9997H29.6965C28.7108 35.9997 27.9117 35.2006 27.9117 34.2149V19.8768Z" fill="black"/>
<path fill-rule="evenodd" clip-rule="evenodd" d="M22.1537 24.9569C22.1537 23.9712 22.9528 23.1721 23.9385 23.1721H25.0679C26.0536 23.1721 26.8527 23.9712 26.8527 24.9569V34.2147C26.8527 35.2005 26.0536 35.9995 25.0679 35.9995H23.6817C22.8378 35.9995 22.1537 35.3154 22.1537 34.4716C22.1537 34.2027 22.3716 33.9848 22.6405 33.9848C22.9093 33.9848 23.1272 34.2027 23.1272 34.4716C23.1272 34.7778 23.3755 35.026 23.6817 35.026H25.0679C25.516 35.026 25.8792 34.6628 25.8792 34.2147V24.9569C25.8792 24.5089 25.516 24.1456 25.0679 24.1456H23.9385C23.4904 24.1456 23.1272 24.5089 23.1272 24.9569V33.4303C23.1272 33.6992 22.9093 33.9171 22.6405 33.9171C22.3716 33.9171 22.1537 33.6992 22.1537 33.4303V24.9569Z" fill="black"/>
<path fill-rule="evenodd" clip-rule="evenodd" d="M16.0574 26.9191C16.0574 25.9722 16.825 25.2046 17.7719 25.2046H18.9716C19.9573 25.2046 20.7564 26.0037 20.7564 26.9894V34.2151C20.7564 35.2008 19.9573 35.9999 18.9716 35.9999H17.8422C16.8565 35.9999 16.0574 35.2008 16.0574 34.2151V28.1468C16.0574 27.878 16.2753 27.66 16.5441 27.66C16.813 27.66 17.0309 27.878 17.0309 28.1468V34.2151C17.0309 34.6632 17.3941 35.0264 17.8422 35.0264H18.9716C19.4197 35.0264 19.7829 34.6632 19.7829 34.2151V26.9894C19.7829 26.5413 19.4197 26.1781 18.9716 26.1781H17.7719C17.3626 26.1781 17.0309 26.5099 17.0309 26.9191C17.0309 27.1879 16.813 27.4058 16.5441 27.4058C16.2753 27.4058 16.0574 27.1879 16.0574 26.9191Z" fill="black"/>
</svg>

<svg width="48" height="48" fill="none" xmlns="http://www.w3.org/2000/svg"><path d="M16.995 25.963l-.395.395v8.693l.79.593h1.976l.79-.79v-8.1l-.395-.791h-2.765zm6.279-2.371l-.464.575v11l.816.675h1.756l.702-1v-10.25c.142-.487.133-.73-.351-1h-2.459zm5.516-5.013l-.392.883v15.344l.785 1.046h1.96l.98-1.3V20.16l-.391-1.581H28.79z" fill="#C43B55"/><path fill-rule="evenodd" clip-rule="evenodd" d="M30.671 12.013c.14.033.26.127.324.256l.563 1.126a.487.487 0 01-.87.436c-1.144 3.42-3.532 5.747-6.115 7.272-2.875 1.697-6.018 2.42-8.052 2.564a.487.487 0 11-.069-.97c1.907-.137 4.9-.822 7.626-2.432 2.375-1.403 4.527-3.492 5.608-6.518a.487.487 0 01-.544-.805l1.125-.845a.487.487 0 01.404-.084zm-2.759 7.864c0-.986.799-1.785 1.785-1.785h1.129c.986 0 1.785.8 1.785 1.785v6.861a.487.487 0 01-.974 0v-6.861a.811.811 0 00-.811-.811h-1.13a.811.811 0 00-.81.81v14.339a.81.81 0 00.81.811h1.13a.811.811 0 00.811-.811V28.43a.487.487 0 11.974 0v5.784c0 .986-.8 1.785-1.785 1.785h-1.13c-.985 0-1.784-.8-1.784-1.785V19.877zm-5.758 5.08c0-.986.799-1.785 1.785-1.785h1.129c.986 0 1.785.8 1.785 1.785v9.258c0 .985-.8 1.784-1.785 1.784h-1.386a1.528 1.528 0 01-1.528-1.527.487.487 0 11.973 0c0 .306.248.554.555.554h1.386a.811.811 0 00.811-.811v-9.258a.811.811 0 00-.811-.811h-1.13a.811.811 0 00-.81.81v8.474a.487.487 0 11-.974 0v-8.473zm-6.097 1.963c0-.948.768-1.715 1.715-1.715h1.2c.985 0 1.784.799 1.784 1.784v7.226c0 .986-.799 1.785-1.784 1.785h-1.13c-.985 0-1.785-.8-1.785-1.785v-6.068a.487.487 0 11.974 0v6.068a.81.81 0 00.811.811h1.13a.811.811 0 00.81-.81v-7.227a.811.811 0 00-.81-.81h-1.2a.741.741 0 00-.741.74.487.487 0 01-.974 0z" fill="#000"/></svg>
